build/communication/YouTubeRoundSolid.svg

<svg xmlns="http://www.w3.org/2000/svg" fill="none" viewBox="0 0 24 24" focusable="false"><path d="M0 0H24V24H0z"/><path fill="#74767B" fill-rule="evenodd" d="M12 3C7.02942 3 3 7.02943 3 12C3 16.9706 7.02942 21 12 21C16.9706 21 21 16.9706 21 12C21 7.02943 16.9706 3 12 3ZM16.2979 8.3793C16.772 8.50705 17.1448 8.87979 17.2708 9.35226C17.5 10.2097 17.5 11.9999 17.5 11.9999C17.5 11.9999 17.5 13.7901 17.2708 14.6475C17.1431 15.1217 16.7703 15.4945 16.2979 15.6205C15.4404 15.8497 12 15.8497 12 15.8497C12 15.8497 8.56152 15.8497 7.70215 15.6205C7.22803 15.4927 6.85522 15.12 6.72925 14.6475C6.5 13.7901 6.5 11.9998 6.5 11.9998C6.5 11.9998 6.5 10.2097 6.72925 9.35226C6.85693 8.87802 7.22974 8.50528 7.70215 8.3793C8.56152 8.15005 12 8.15005 12 8.15005C12 8.15005 15.4404 8.15005 16.2979 8.3793ZM10.9009 13.65L13.7583 11.9998L10.9009 10.3496L10.9009 13.65Z"/></svg>

<svg xmlns="http://www.w3.org/2000/svg" fill="none" viewBox="0 0 24 24" focusable="false"><path fill="none" d="M0 0h24v24H0z"/><path fill="#74767B" fill-rule="evenodd" d="M12 3c-4.98 0-9 4.02-9 9 0 4.97 4.02 9 9 9a9 9 0 0 0 9-9c0-4.98-4.03-9-9-9m4.29 5.37c.48.13.85.5.98.98.23.85.23 2.64.23 2.64s0 1.8-.23 2.65c-.13.48-.5.85-.98.98-.85.22-4.29.22-4.29.22s-3.44 0-4.3-.22c-.48-.13-.85-.5-.98-.98-.22-.85-.22-2.65-.22-2.65s0-1.79.22-2.64c.13-.48.5-.85.98-.98.86-.22 4.3-.22 4.3-.22s3.44 0 4.29.22m-5.39 5.28 2.85-1.66-2.85-1.65z"/></svg>
